src/categories-icons-sprite/categories/svg-cat-garden-tools.svg

<svg width="34" height="34" viewBox="0 0 34 34" fill="none" xmlns="http://www.w3.org/2000/svg">
<path class="p-61D7A8" d="M28.2377 9.96457L18.5025 19.6998L15.6595 19.6715L14.252 18.264L14.2802 15.4776L24.0012 5.75635C23.9029 6.86813 23.3643 8.92657 24.2089 9.77091C25.0672 10.6295 27.1259 10.0631 28.2377 9.96457Z" fill="#B9DFFC"/>
<path class="p-00AB94" d="M28.2374 9.96441L18.5021 19.6996L15.6591 19.6714L14.9834 18.9959L24.2085 9.77075C25.0669 10.6294 27.1256 10.063 28.2374 9.96441Z" fill="#A1D1FD"/>
<path class="p-C5D3DD" d="M9.7344 24.2457C9.94529 23.1056 10.5084 22.0641 11.3388 21.2338L14.5475 18.0248L7.17284 14.3374L6.69425 14.6471C1.14908 18.3345 -1.42649 24.4285 0.797079 33.1827C9.79069 35.4768 15.6876 32.7604 19.3329 27.2858L19.6427 26.8072L15.9553 19.4323L12.7463 22.6413C11.9159 23.4714 10.8742 24.0345 9.7344 24.2457Z" fill="#B9DFFC"/>
<path class="p-537983" d="M9.93092 19.8265C7.93251 21.8251 6.73242 24.7419 6.73242 27.2472L8.63626 26.3288C10.7332 26.3428 12.6896 25.5125 14.1531 24.0487L18.5022 19.6999L14.2657 15.4636L9.93092 19.8265Z" fill="#58ADE5"/>
<path class="p-9FACBA" d="M15.9548 19.4324L19.6422 26.8071L19.3325 27.2857C15.6874 32.7605 9.79023 35.477 0.796875 33.1828L9.7342 24.2458C10.874 24.0344 11.9155 23.4715 12.7458 22.6414L15.9548 19.4324Z" fill="#65B3E7"/>
<path class="p-3E5959" d="M6.73242 27.2472L16.391 17.5886L18.5022 19.6999L14.1531 24.0487C12.6896 25.5125 9.81486 27.2612 7.71788 27.2472H6.73242Z" fill="#4D98CB"/>
<path class="p-537983" d="M24.4241 2.51928C22.482 4.4614 21.5636 8.53251 23.5057 10.4746C25.4761 12.445 29.5329 11.4844 31.4613 9.55625L33.9803 7.03697L26.9434 0C26.6619 0.281448 24.4241 2.51928 24.4241 2.51928ZM31.1656 7.03697L30.0538 8.14901C28.8715 9.33109 26.0673 10.2215 24.9132 9.06739C23.7449 7.89906 24.6633 5.09485 25.8316 3.92652L26.9434 2.81474L31.1656 7.03697Z" fill="#58ADE5"/>
<path class="p-3E5959" d="M30.462 3.51855L33.9805 7.03704L31.4615 9.55632C29.5331 11.4844 25.4763 12.4451 23.5059 10.4747L24.9134 9.06746C26.0674 10.2215 28.8716 9.33116 30.054 8.14908L31.1658 7.03704L29.0548 4.92605L30.462 3.51855Z" fill="#4D98CB"/>
</svg>

<svg width="34" height="34" fill="none" xmlns="http://www.w3.org/2000/svg"><path class="p-61D7A8" d="M28.238 9.965L18.503 19.7l-2.844-.028-1.407-1.408.028-2.786 9.721-9.722c-.098 1.112-.637 3.17.208 4.015.858.858 2.917.292 4.029.194z" fill="#B9DFFC"/><path class="p-00AB94" d="M28.237 9.964L18.502 19.7l-2.843-.029-.676-.675L24.21 9.77c.858.858 2.917.292 4.028.193z" fill="#A1D1FD"/><path class="p-C5D3DD" d="M9.734 24.246a5.736 5.736 0 011.605-3.012l3.208-3.21-7.374-3.687-.479.31C1.15 18.334-1.426 24.428.797 33.183c8.994 2.294 14.89-.423 18.536-5.897l.31-.479-3.688-7.375-3.209 3.21a5.742 5.742 0 01-3.012 1.604z" fill="#B9DFFC"/><path class="p-537983" d="M9.93 19.826c-1.997 2-3.198 4.916-3.198 7.421l1.904-.918a7.69 7.69 0 005.517-2.28l4.35-4.35-4.237-4.235-4.335 4.362z" fill="#58ADE5"/><path class="p-9FACBA" d="M15.955 19.432l3.687 7.375-.31.479C15.688 32.76 9.79 35.477.797 33.183l8.937-8.937a5.742 5.742 0 003.012-1.605l3.209-3.209z" fill="#65B3E7"/><path class="p-3E5959" d="M6.732 27.247l9.659-9.658 2.111 2.11-4.349 4.35c-1.463 1.463-4.338 3.212-6.435 3.198h-.986z" fill="#4D98CB"/><path class="p-537983" d="M24.424 2.52c-1.942 1.941-2.86 6.013-.918 7.955 1.97 1.97 6.027 1.01 7.955-.919l2.52-2.519L26.942 0l-2.519 2.52zm6.742 4.517l-1.112 1.112c-1.182 1.182-3.987 2.073-5.14.918-1.17-1.168-.25-3.972.918-5.14l1.111-1.112 4.223 4.222z" fill="#58ADE5"/><path class="p-3E5959" d="M30.462 3.519l3.518 3.518-2.518 2.52c-1.929 1.927-5.986 2.888-7.956.918l1.407-1.408c1.154 1.155 3.959.264 5.141-.918l1.112-1.112-2.111-2.111 1.407-1.407z" fill="#4D98CB"/></svg>
